X: 1
T: The Ythan Bar
C: Ian Powrie
B: SRSNH transcription by Barbara McOwen
R: jig
Z: John Chambers <jc:trillian.mit.edu>
M: 6/8
L: 1/8
K: A
z \
| "A"EFG ABc | "D"def "E7"e2d | "A"cBA "F#m"edc | "B7"cBA "E7"B2E \
| "A"EFG ABc | "D"def "E7"e2d | "A"cBA "F#m"edc | "E7"B3 "A"A2 :|
B \
| "F#m"c2F FAB | cAF FGA | "E"B2E "B7"EGA | "E"Bec "E7"BGE \
| "A"EFG ABc | "D"def "E7"e2d | "A"cBA "F#m"edc | "E7"B3 "A"A2 :|
